X:1
T:Title
%%score { ( 1 2 4 ) | ( 3 5 ) }
L:1/8
Q:1/4=116
M:4/4
K:A
V:1 treble nm="Grand Piano"
V:2 treble 
V:4 treble 
V:3 bass 
V:5 bass 
V:1
 E6 z2 | E6 z2 | C4 C2 z2 | C6 z2 | [FB]4 [F=c]4 | c6 z2 | B4 ^A4 | B6 z2 | [Ec]4 B2 A2 | %9
w: Ira~O.~Hoffman|||||||||
 [DA]4 [DG]2 [DF]2 | [DE]4 [DF]2 [DE]2 | [CE]6 z2 | [Ee]4 [Ec]4 | [FB]4 [Fd]2 [Fd]2 | d4 c2 B2 | %15
w: ||||||
 A6 z2 | A4 B4 | A4 B2 A2 | A4 B2 A2 | A6 z2 | [FA]4 [FG]2 A2 | c4 E4 | F8 | B8 | [CA]6 z2 |] %25
w: ||||||||||
V:2
 z2 D2- DC E2 | x8 | z4 z A, C2 | x8 | x8 | x8 | x8 | x8 | z4 C4 | x8 | x8 | x8 | x8 | x8 | x8 | %15
 x8 | x8 | x8 | x8 | x8 | x8 | x8 | x8 | z4 z2 z A | x8 |] %25
V:3
 z2 B,2- B,A, [G,B,]2 | [A,C]6 z2 | z2 G,2- G,F, [^E,G,]2 | [F,A,]6 z2 | [^D,A,]4 [D,A,]4 | %5
 [E,A,E]6 z2 | [^E,G,D]4 [=E,=G,C]4 | [E,G,D]6 z2 | [A,,A,]4 [A,,E,]4 | %9
 [A,,F,]4 [A,,F,]2 [A,,F,]2 | [A,,G,]4 [A,,G,]2 [A,,G,]2 | [A,,A,]6 z2 | [C,A,]4 [C,A,]4 | %13
 [D,A,]4 [D,B,]2 [D,B,]2 | [E,G,E]4 [E,A,E]2 [E,G,D]2 | [F,A,C]6 z2 | [=G,A,C]4 [G,A,C]4 | %17
 [F,A,D]4 [F,A,D]2 [F,A,D]2 | [E,=G,C]4 [E,G,C]4 | [D,F,D]6 z2 | [^D,B,]4 [D,B,]2 [F,B,^D]2 | %21
 [E,A,E]4 [E,A,C]4 | [E,A,^D]8 | [F,^D]4 G,4 | [A,,A,]6 z2 |] %25
V:4
 x8 | x8 | z2 B,4 z2 | x8 | x8 | x8 | x8 | x8 | x8 | x8 | x8 | x8 | x8 | x8 | x8 | x8 | x8 | x8 | %18
 x8 | x8 | x8 | x8 | x8 | z4 D4 | x8 |] %25
V:5
 x8 | x8 | x8 | x8 | x8 | x8 | x8 | x8 | x8 | x8 | x8 | x8 | x8 | x8 | x8 | x8 | x8 | x8 | x8 | %19
 x8 | x8 | x8 | x8 | E,8 | x8 |] %25

